kiosk-igrinskij/images/faf79490314fbaef42baac6ed03632c2.svg

<svg fill="none" height="20" viewBox="0 0 13 20" width="13" xmlns="http://www.w3.org/2000/svg" xmlns:xlink="http://www.w3.org/1999/xlink"><mask id="a" height="20" maskUnits="userSpaceOnUse" width="13" x="0" y="0"><path clip-rule="evenodd" d="m6.05566 0c-3.11433 0-5.669234 2.46643-5.778947 5.57882l-.27200334 7.71628c-.10773266 3.0562 1.63853034 6.0491 4.65208034 6.5693.48855.0844.9642.1356 1.39887.1356.43466 0 .91031-.0512 1.39887-.1356 3.01357-.5202 4.75977-3.5131 4.65207-6.5693l-.272-7.71628c-.1097-3.11239-2.66462-5.57882-5.77894-5.57882zm0 1.80328c-2.16462 0-3.93857 1.71792-4.00802 3.88142l-.16246 5.0612c-.05023 1.5648 1.20466 2.8607 2.77029 2.8607h2.80037c1.56562 0 2.82056-1.2959 2.77026-2.8607l-.1624-5.0612c-.06948-2.1635-1.84343-3.88142-4.00804-3.88142z" fill="#f1e9dd" fill-rule="evenodd"/></mask><path clip-rule="evenodd" d="m11.1072 13.3304-.272-7.71635c-.0907-2.57415-2.2038-4.61405-4.77954-4.61405-2.57575 0-4.68883 2.0399-4.77957 4.61405l-.272 7.71625c-.096191 2.7288 1.45468 5.1399 3.8228 5.5487.45211.0781.86814.121 1.22877.121.36062 0 .77665-.0429 1.22876-.121 2.36812-.4088 3.91898-2.8199 3.82278-5.5486zm-5.05154-13.3304c-3.11433 0-5.669234 2.46643-5.778947 5.57882l-.27200334 7.71628c-.10773266 3.0562 1.63853034 6.0491 4.65207034 6.5693.48856.0844.96421.1356 1.39888.1356.43466 0 .91031-.0512 1.39887-.1356 3.01357-.5202 4.75977-3.5131 4.65207-6.5693l-.272-7.71628c-.1097-3.11239-2.66462-5.57882-5.77894-5.57882zm3.17098 10.778-.16246-5.06121c-.05212-1.62399-1.3837-2.91351-3.00852-2.91351-1.62483 0-2.9564 1.28952-3.00853 2.91351l-.16246 5.06121c-.03211 1.0003.77003 1.8286 1.7708 1.8286h2.80037c1.00077 0 1.80291-.8283 1.7708-1.8286zm-3.17098-8.97472c-2.16462 0-3.93857 1.71792-4.00802 3.88142l-.16246 5.0612c-.05023 1.5648 1.20466 2.8607 2.77029 2.8607h2.80037c1.56562 0 2.82056-1.2959 2.77026-2.8607l-.1624-5.0612c-.06948-2.1635-1.84343-3.88142-4.00804-3.88142z" fill="#f1e9dd" fill-rule="evenodd"/><g mask="url(#a)" stroke="#f1e9dd"><path d="m3.1191 26.1357 16.0727-16.0727"/><path d="m.706993 23.7248 16.072707-16.07265"/><path d="m-1.70316 21.3139 16.07266-16.07263"/><path d="m-4.11332 18.9028 16.07262-16.07267"/><path d="m-6.52543 16.4919 16.07266-16.072655"/><path d="m-8.93558 14.081 16.07266-16.07264"/><path d="m-7.0234 10.0627 16.07266 16.0727"/><path d="m-4.61324 7.65206 16.07264 16.07264"/><path d="m-2.20113 5.24117 16.07263 16.07263"/><path d="m.209022 2.83028 16.072678 16.07262"/><path d="m2.62113.419396 16.07267 16.072704"/><path d="m5.03129-1.99149 16.07261 16.07269"/></g></svg>

<svg width="13" height="20" viewBox="0 0 13 20" fill="none" xmlns="http://www.w3.org/2000/svg">
<path fill-rule="evenodd" clip-rule="evenodd" d="M11.1072 13.3304L10.8352 5.61405C10.7445 3.0399 8.6314 1 6.05566 1C3.47991 1 1.36683 3.0399 1.27609 5.61405L1.00409 13.3303C0.907899 16.0591 2.45877 18.4702 4.82689 18.879C5.279 18.9571 5.69503 19 6.05566 19C6.41628 19 6.83231 18.9571 7.28442 18.879C9.65254 18.4702 11.2034 16.0591 11.1072 13.3304ZM6.05566 0C2.94133 0 0.386426 2.46643 0.276713 5.57882L0.00470966 13.2951C-0.103023 16.3513 1.64324 19.3442 4.65678 19.8644C5.14534 19.9488 5.62099 20 6.05566 20C6.49032 20 6.96597 19.9488 7.45453 19.8644C10.4681 19.3442 12.2143 16.3513 12.1066 13.2951L11.8346 5.57882C11.7249 2.46643 9.16998 0 6.05566 0ZM9.22664 10.778L9.06418 5.71679C9.01206 4.0928 7.68048 2.80328 6.05566 2.80328C4.43083 2.80328 3.09926 4.0928 3.04713 5.71679L2.88467 10.778C2.85256 11.7783 3.6547 12.6066 4.65547 12.6066H7.45584C8.45661 12.6066 9.25875 11.7783 9.22664 10.778ZM6.05566 1.80328C3.89104 1.80328 2.11709 3.5212 2.04764 5.6847L1.88518 10.7459C1.83495 12.3107 3.08984 13.6066 4.65547 13.6066H7.45584C9.02146 13.6066 10.2764 12.3107 10.2261 10.7459L10.0637 5.6847C9.99422 3.5212 8.22027 1.80328 6.05566 1.80328Z" fill="#F1E9DD"/>
<mask id="mask0" mask-type="alpha" maskUnits="userSpaceOnUse" x="0" y="0" width="13" height="20">
<path fill-rule="evenodd" clip-rule="evenodd" d="M6.05566 0C2.94133 0 0.386426 2.46643 0.276713 5.57882L0.00470966 13.2951C-0.103023 16.3513 1.64324 19.3442 4.65679 19.8644C5.14534 19.9488 5.62099 20 6.05566 20C6.49032 20 6.96597 19.9488 7.45453 19.8644C10.4681 19.3442 12.2143 16.3513 12.1066 13.2951L11.8346 5.57882C11.7249 2.46643 9.16998 0 6.05566 0ZM6.05566 1.80328C3.89104 1.80328 2.11709 3.5212 2.04764 5.6847L1.88518 10.7459C1.83495 12.3107 3.08984 13.6066 4.65547 13.6066H7.45584C9.02146 13.6066 10.2764 12.3107 10.2261 10.7459L10.0637 5.6847C9.99422 3.5212 8.22027 1.80328 6.05566 1.80328Z" fill="#F1E9DD"/>
</mask>
<g mask="url(#mask0)">
<line x1="3.1191" y1="26.1357" x2="19.1918" y2="10.063" stroke="#F1E9DD"/>
<line x1="0.706993" y1="23.7248" x2="16.7797" y2="7.65215" stroke="#F1E9DD"/>
<line x1="-1.70316" y1="21.3139" x2="14.3695" y2="5.24127" stroke="#F1E9DD"/>
<line x1="-4.11332" y1="18.9028" x2="11.9593" y2="2.83013" stroke="#F1E9DD"/>
<line x1="-6.52543" y1="16.4919" x2="9.54723" y2="0.419245" stroke="#F1E9DD"/>
<line x1="-8.93558" y1="14.081" x2="7.13708" y2="-1.99164" stroke="#F1E9DD"/>
<line x1="-7.0234" y1="10.0627" x2="9.04926" y2="26.1354" stroke="#F1E9DD"/>
<line x1="-4.61324" y1="7.65206" x2="11.4594" y2="23.7247" stroke="#F1E9DD"/>
<line x1="-2.20113" y1="5.24117" x2="13.8715" y2="21.3138" stroke="#F1E9DD"/>
<line x1="0.209022" y1="2.83028" x2="16.2817" y2="18.9029" stroke="#F1E9DD"/>
<line x1="2.62113" y1="0.419396" x2="18.6938" y2="16.4921" stroke="#F1E9DD"/>
<line x1="5.03129" y1="-1.99149" x2="21.1039" y2="14.0812" stroke="#F1E9DD"/>
</g>
</svg>
